icons/dizzy_fill.svg

<svg width="48" height="48" viewBox="0 0 48 48" fill="none" xmlns="http://www.w3.org/2000/svg">
<path d="M27.2929 17.2929C27.6834 16.9024 28.3166 16.9024 28.7071 17.2929L30.5 19.0858L32.2929 17.2929C32.6834 16.9024 33.3166 16.9024 33.7071 17.2929C34.0976 17.6834 34.0976 18.3166 33.7071 18.7071L31.9142 20.5L33.7071 22.2929C34.0976 22.6834 34.0976 23.3166 33.7071 23.7071C33.3166 24.0976 32.6834 24.0976 32.2929 23.7071L30.5 21.9142L28.7071 23.7071C28.3166 24.0976 27.6834 24.0976 27.2929 23.7071C26.9024 23.3166 26.9024 22.6834 27.2929 22.2929L29.0858 20.5L27.2929 18.7071C27.2441 18.6583 27.2014 18.6057 27.1648 18.5502C26.9085 18.1621 26.9512 17.6346 27.2929 17.2929Z" fill="black"/>
<path d="M14.2929 17.2929C14.6834 16.9024 15.3166 16.9024 15.7071 17.2929L17.5 19.0858L19.2929 17.2929C19.6834 16.9024 20.3166 16.9024 20.7071 17.2929C21.0976 17.6834 21.0976 18.3166 20.7071 18.7071L18.9142 20.5L20.7071 22.2929C20.7559 22.3417 20.7986 22.3943 20.8352 22.4498C21.0915 22.8379 21.0488 23.3654 20.7071 23.7071C20.3166 24.0976 19.6834 24.0976 19.2929 23.7071L17.5 21.9142L15.7079 23.7063L15.7071 23.7071C15.3166 24.0976 14.6834 24.0976 14.2929 23.7071C13.9024 23.3166 13.9024 22.6834 14.2929 22.2929L16.0858 20.5L14.2929 18.7071C14.2441 18.6583 14.2014 18.6057 14.1648 18.5502C13.9085 18.1621 13.9512 17.6346 14.2929 17.2929Z" fill="black"/>
<path d="M31 32C31 35.3137 27.866 36 24 36C20.134 36 17 35.3137 17 32C17 28.6863 20.134 26 24 26C27.866 26 31 28.6863 31 32Z" fill="black"/>
<path fill-rule="evenodd" clip-rule="evenodd" d="M24 42C33.9411 42 42 33.9411 42 24C42 14.0589 33.9411 6 24 6C14.0589 6 6 14.0589 6 24C6 33.9411 14.0589 42 24 42ZM24 40C32.8366 40 40 32.8366 40 24C40 15.1634 32.8366 8 24 8C15.1634 8 8 15.1634 8 24C8 32.8366 15.1634 40 24 40Z" fill="black"/>
</svg>

<svg
  xmlns="http://www.w3.org/2000/svg"
  width="24"
  height="24"
  viewBox="0 0 24 24"
  fill="none"
  stroke="currentColor"
  stroke-width="2"
  stroke-linecap="round"
  stroke-linejoin="round"
>
  <path d="M27.293 17.293a1 1 0 0 1 1.414 0l1.793 1.793 1.793-1.793a1 1 0 0 1 1.414 1.414L31.914 20.5l1.793 1.793a1 1 0 0 1-1.414 1.414L30.5 21.914l-1.793 1.793a1 1 0 0 1-1.414-1.414l1.793-1.793-1.793-1.793a1 1 0 0 1 0-1.414" />
  <path d="M14.293 17.293a1 1 0 0 1 1.414 0l1.793 1.793 1.793-1.793a1 1 0 0 1 1.414 1.414L18.914 20.5l1.793 1.793a1 1 0 0 1 0 1.414 1 1 0 0 1-1.414 0L17.5 21.914l-1.792 1.792v.001a1 1 0 0 1-1.415-1.414l1.793-1.793-1.793-1.793a1 1 0 0 1 0-1.414" />
  <path d="M31 32c0 3.314-3.134 4-7 4s-7-.686-7-4 3.134-6 7-6 7 2.686 7 6" />
  <path
    fill-rule="evenodd"
    d="M24 42c9.941 0 18-8.059 18-18S33.941 6 24 6 6 14.059 6 24s8.059 18 18 18m0-2c8.837 0 16-7.163 16-16S32.837 8 24 8 8 15.163 8 24s7.163 16 16 16"
    clip-rule="evenodd"
  />
</svg>
